X:3066
T:Windm\"uller Polka
T:The windmiller polka
C:anon.
O:Germany
R:Polka
F:http://abc.musicaviva.com/tunes/germany/windmuller-polka.abc
M:2/4
L:1/8
K:C
"C"Gcc2|"C"Gee2|"G7"dc BA|"G7"G2 g z|"C"Gcc2|"C"Gee2|"G7"df Bd|"C"c4:|
|:"C"egg2|"G7"dff2|"C"ec Bc|"G7"dBG2|"C"egg2|"F"Aff2|"G7"ec dB|"C"ce "_Fine"c z:|
|:"Am"cc/c/ cc|"Dm"dd/d/ dd|"G7"fd Bd|"C"cd e2|"Am"cc/c/ cc|"Dm"dd/d/ dd|"G7"fd Bd|"C"c4:|
W:
W:
W:  From Musica Viva - http://www.musicaviva.com
W:  the Internet center for free sheet music downloads.


